X: 2
T:North Trenton Waltz, The
M:3/4
L:1/8
C:Dan Flynn
R:Waltz
K:G
DE[|:G2 GD DE|G2 GD DE|G2 G2 A2|B4 Bd|!
e4 de|B2 G2 GA|B2 A2 G2|E4 DE|!
G2 GD DE|G2 GD DE|G2 G2 A2|B4 Bd|!
e4 de|B2 G2 GA|B2 D2 F2|1G4 DE:|2G4 Bd|!
|:e2 g3 e|d2 B2 Bd|e2 g3 e|d4 Bd|!
e2 g3 e|d2 G2 GA|B2 A2 G2|E4 DE|!
G2 GD DE|G2 GD DE|G2 G2 A2|B4 Bd|!
e4 de|B2 G2 GA|B2 D2 F2|1G4 Bd:|2G4 DE:|]!
